X: 40335
T: Tom Busby's
R: jig
M: 6/8
K: Edorian
dAF G2 A|BAB E3|BAB GAB|AFD DFA|
dAF G2 A|BAB dcB|AFA (3Bcd B|1 AFD DFA:|2 AFD D z a||
gfg e2 d|BeB ebe|gbg eag|fdc def|gfe agf|
gfe dcB|AFA (3Bcd B|1 AFD DFA:|2 AFD DEF||
G2 A BEE|dEE BEE|G2 A BAB|dcB AFD|
G2 A BGE|dec dcB|AFA (3Bcd B|1 AFD DEF:|2 AFA DEF||

